!!!COM: Anon.
!!!OTL: Que tu tens, o/ Maria Gracia
!!!OTL: Romanceiro Folclorico do Brasil
!!!CNT: Brasil
!!!OCY: Brasil
!!!ODT: <1971///
!!!PSR: Irmaos Vitale
!!!PSP: Sao Paulo, Brasil
!!!PDT: ????///
!!!PPE: Rossini Tavares de Lima
!!!PPG: page 12
!! Romance: Juliana E D. Jorge
!! Place: Bairro da Luz, Captial, Sao Paulo, Brasil
**kern
*clefG2
*k[b-e-a-]
*M3/4
*MM100
8e-
8g
=1
4c
4c
8e-
8g
=
4c
4c
8g
8g
=
4a-
4g
8f
8en
=
2f
8f
8g
=
4b-
8a-
8e-
8d
8c
=
4a-
4g
8f
8e-
=
4g
8f
8f
8e-
8d
=
2c
==
*-
